assets/icons/traton/contact.svg

<svg xmlns="http://www.w3.org/2000/svg" width="32" height="32" viewBox="0 0 32 32" fill="none">
<path d="M4 30L28 30L28 2L4 2L4 30ZM26 28L6 28L6 4L26 4L26 28ZM8.09766 21.1475L8 21.3525L8 25L10 25L10 21.8066L10.8643 20L21.1348 20L22 21.8115L22 25L24 25L24 21.3594L22.3965 18L9.60449 18L8.09766 21.1475ZM15.96 7C13.287 7.0001 11.1202 9.16692 11.1201 11.8398C11.1201 14.5128 13.287 16.6796 15.96 16.6797C18.6329 16.6796 20.7998 14.5129 20.7998 11.8398C20.7997 9.16691 18.6329 7.00008 15.96 7ZM15.96 9C17.5283 9.00008 18.7997 10.2715 18.7998 11.8398C18.7998 13.4083 17.5284 14.6796 15.96 14.6797C14.3916 14.6796 13.1201 13.4083 13.1201 11.8398C13.1202 10.2715 14.3916 9.0001 15.96 9Z" fill="#001D21" />
</svg>

<svg xmlns="http://www.w3.org/2000/svg" fill="none" viewBox="0 0 32 32"><path fill="#001d21" d="M4 30h24V2H4zm22-2H6V4h20zM8.1 21.1l-.1.3V25h2v-3.2l.9-1.8H21l.9 1.8V25h2v-3.6L22.4 18H9.6zM16 7a4.8 4.8 0 1 0 0 9.7A4.8 4.8 0 0 0 16 7m0 2a2.8 2.8 0 1 1 0 5.7A2.8 2.8 0 0 1 16 9"/></svg>
